icons/knip.svg

<svg width="16" height="16" viewBox="0 0 16 16" fill="none" xmlns="http://www.w3.org/2000/svg">
<path fill-rule="evenodd" clip-rule="evenodd" d="M9.0498 3.31238C9.51656 2.50408 10.9352 1.16804 12.875 2.28797L9.29883 7.01063L15 6.33289C15 8.46608 13.1336 8.99981 12.2002 8.99988H7.79395L6.87109 10.2196C7.04107 10.2662 7.20937 10.3324 7.36914 10.4247C8.37334 11.0047 8.71754 12.2895 8.1377 13.2938C7.55778 14.2982 6.27295 14.6423 5.26855 14.0624C4.26414 13.4825 3.9201 12.1977 4.5 11.1932L5.7666 8.99988H3.09961C1.93999 8.99968 1 8.10433 1 6.99988C1.00006 5.89549 1.94003 5.00009 3.09961 4.99988C4.25937 4.99988 5.20013 5.89537 5.2002 6.99988C5.2002 7.17555 5.17357 7.34537 5.12891 7.5077L6.73828 7.31531L9.0498 3.31238ZM6.66895 11.6376C6.33423 11.4443 5.90626 11.5588 5.71289 11.8934C5.5196 12.2282 5.63397 12.6562 5.96875 12.8495C6.30352 13.0428 6.73148 12.9284 6.9248 12.5936C7.11804 12.2589 7.00349 11.831 6.66895 11.6376ZM3.09961 6.33289C2.71323 6.33309 2.40046 6.63187 2.40039 6.99988C2.40039 7.36795 2.71319 7.66668 3.09961 7.66688C3.48621 7.66688 3.7998 7.36807 3.7998 6.99988C3.79974 6.63175 3.48617 6.33289 3.09961 6.33289Z" fill="#E86F12"/>
</svg>

<svg xmlns="http://www.w3.org/2000/svg" width="16" height="16" fill="none" viewBox="0 0 16 16"><path fill="#E86F12" fill-rule="evenodd" d="M9.05 3.312c.467-.808 1.885-2.144 3.825-1.024L9.299 7.011 15 6.333C15 8.466 13.134 9 12.2 9H7.794l-.923 1.22q.256.067.498.205a2.1 2.1 0 1 1-2.869.768L5.767 9H3.1C1.94 9 1 8.104 1 7s.94-2 2.1-2 2.1.895 2.1 2q-.002.264-.071.508l1.61-.193zm-2.381 8.326a.7.7 0 1 0-.7 1.212.7.7 0 0 0 .7-1.212m-3.57-5.305c-.386 0-.699.299-.699.667s.313.667.7.667.7-.299.7-.667-.314-.667-.7-.667" clip-rule="evenodd"/></svg>
